X: 1
T: Clumsy Lover Reel
M: 4/4
L: 1/8
R: reel
K: Dmix
|:AG | FAAF BAGF | GBBG cBAG | FAAF BAGF | GE E2 GFED |
FAAF BAGF | GBBG cBAG | FAAF GE E2 | FD D2 D3A :||
|:FAAd dAFA | GBBd dBAG | FAAd dAFA | GE E2 GFED |
FAAd dAFA | GBBd dBAG | FAAF GE E2 | FD D2 D3A :||
|:FFdF FdFd | GGdG GdGd | FFdF FdFd | EdFd GdEd |
FFdF FdFd | GGdG GdGd | FAAF GE E2 | FD D2 D3A :||
